X: 1260
T: Bert Jamieson's Set Tune No 2
B: australian traditional tunes wiki
M:4/4
L:1/8
R: Reel
Q: 1/4=100
K:G
V:1 
B3c|"G"d2d2dedc|B2B2B2A2|G4D3G|"D7"B2A2A2AB|
"Am"c2c2cdcB|"D7"A2A2A2G2|F2A2e2d2|"G"B4B3c|
d2d2dedc|B2B2B2A2|G2B2d2g2|"C"f4e2fe|
"G"d6ef|gfgf"C"e2fg|"D7"agfed2d2|e2f2"G"g4||
|:"G"g2fed2e2|"D"c2d2"G"B2c2|d2edc2B2|"D7"A8|
"G"g2fed2e2|"D"c2d2"G"B2c2|"D7"d2d2e2f2|"G"g8:|
% abcbook-tune_id 6342d53ab44350cf8499827a


% abcbook-boost 0
% abcbook-tablature 
% abcbook-transpose 
% abcbook-lastupdated 1665324356390
% abcbook-soundfonts 
% abcbook-repeats 1
% NFF Book 2006

